public/images/question.svg

<svg fill="none" height="24" viewBox="0 0 24 24" width="24" xmlns="http://www.w3.org/2000/svg"><path d="m12 0c-6.65625 0-12 5.39062-12 12 0 6.6562 5.34375 12 12 12 6.6094 0 12-5.3438 12-12 0-6.60938-5.3906-12-12-12zm0 18.75c-.8438 0-1.5-.6562-1.5-1.5s.6094-1.5 1.5-1.5c.7969 0 1.5.6562 1.5 1.5s-.7031 1.5-1.5 1.5zm3.2344-6.6562-2.1094 1.3124v.0938c0 .6094-.5156 1.125-1.125 1.125s-1.125-.5156-1.125-1.125v-.75c0-.375.1875-.75.5625-.9844l2.6719-1.5937c.3281-.18752.5156-.51565.5156-.89065 0-.5625-.5156-1.03125-1.0781-1.03125h-2.3907c-.6093 0-1.0312.46875-1.0312 1.03125 0 .60937-.51562 1.12495-1.125 1.12495s-1.125-.51558-1.125-1.12495c0-1.82813 1.45312-3.28125 3.2344-3.28125h2.3906c1.9219 0 3.375 1.45312 3.375 3.28125 0 1.12495-.6094 2.20315-1.6406 2.81255z" fill="#a37a56"/></svg>

<svg width="24" height="24" viewBox="0 0 24 24" fill="none" xmlns="http://www.w3.org/2000/svg">
<path d="M12 0C5.34375 0 0 5.39062 0 12C0 18.6562 5.34375 24 12 24C18.6094 24 24 18.6562 24 12C24 5.39062 18.6094 0 12 0ZM12 18.75C11.1562 18.75 10.5 18.0938 10.5 17.25C10.5 16.4062 11.1094 15.75 12 15.75C12.7969 15.75 13.5 16.4062 13.5 17.25C13.5 18.0938 12.7969 18.75 12 18.75ZM15.2344 12.0938L13.125 13.4062V13.5C13.125 14.1094 12.6094 14.625 12 14.625C11.3906 14.625 10.875 14.1094 10.875 13.5V12.75C10.875 12.375 11.0625 12 11.4375 11.7656L14.1094 10.1719C14.4375 9.98438 14.625 9.65625 14.625 9.28125C14.625 8.71875 14.1094 8.25 13.5469 8.25H11.1562C10.5469 8.25 10.125 8.71875 10.125 9.28125C10.125 9.89062 9.60938 10.4062 9 10.4062C8.39062 10.4062 7.875 9.89062 7.875 9.28125C7.875 7.45312 9.32812 6 11.1094 6H13.5C15.4219 6 16.875 7.45312 16.875 9.28125C16.875 10.4062 16.2656 11.4844 15.2344 12.0938Z" fill="#A37A56"/>
</svg>
